X:439
T: WAS HAB ICH DENN MEINEM FEINSLIEBCHEN GETAN
N: F0816
O: Europa, Mitteleuropa, Deutschland
R: Geselligkeits - Lied, Liebe, Klage
M: 4/4
L: 1/16
K: E
E2G2 | B2B2B2B2B2c2B2A2 | A4G2G2B4A2
G2 | G4F2F2c4B2A2 | A4G3GB4z2
B2 | B4F3BB4d2d2 | d2c2f3ed3cB2
B2 | e4d3cB3cB2A2 | G4F2F2E4

@@@ Tune index: 5870
